;FLAVOR:Marlin
;TIME:1547
;Filament used: 1.32112m
;Layer height: 0.2
;MINX:128.628
;MINY:128.628
;MINZ:0.2
;MAXX:171.372
;MAXY:171.372
;MAXZ:20
;TARGET_MACHINE.NAME:Creality CR-10
;Generated with Cura_SteamEngine 5.6.0
M104 S190
M105
M109 S190
M82 ;absolute extrusion mode
; Script based on an original created by tjjfvi (https://github.com/tjjfvi)
	; An up-to-date version of the tjjfvi's original script can be found
	; here:  https://csi.t6.fyi/
	; Note - This script will only work in Cura V4.2 and above!
	; --- Global Settings
	; layer_height = 0.2
	; smooth_spiralized_contours = True
	; magic_mesh_surface_mode = normal
	; machine_extruder_count = 1
	; --- Single Extruder Settings
	; speed_z_hop = 5
	; retraction_amount = 0.5
	; retraction_hop = 0.2
	; retraction_hop_enabled = False
	; retraction_enable = True
	; retraction_speed = 45
	; retraction_retract_speed = 45
	; retraction_prime_speed = 45
	; speed_travel = 250.0
	
	
	
	M201 X500.00 Y500.00 Z100.00 E5000.00 ;Setup machine max acceleration
	M203 X500.00 Y500.00 Z10.00 E50.00 ;Setup machine max feedrate
	M204 P500.00 R1000.00 T500.00 ;Setup Print/Retract/Travel acceleration
	M205 X8.00 Y8.00 Z0.40 E5.00 ;Setup Jerk
	M220 S100 ;Reset Feedrate
	M221 S100 ;Reset Flowrate
	
	G28 ;Home
	
	G92 E0 ;Reset Extruder
	G1 Z2.0 F3000 ;Move Z Axis up
	G1 X10.1 Y20 Z0.28 F5000.0 ;Move to start position
	G1 X10.1 Y200.0 Z0.28 F1500.0 E15 ;Draw the first line
	G1 X10.4 Y200.0 Z0.28 F5000.0 ;Move to side a little
	G1 X10.4 Y20 Z0.28 F1500.0 E30 ;Draw the second line
	G92 E0 ;Reset Extruder
	G1 Z2.0 F3000 ;Move Z Axis up
G92 E0
G92 E0
G1 F2700 E-0.5
;LAYER_COUNT:100
;LAYER:0
M106 S127.5
G0 F9000 X132.136 Y131.802 Z0.2
;TYPE:SKIRT
G1 F2700 E0
G1 F3000 X132.977 Y131.073 E0.03446
G1 X133.794 Y130.485 E0.06563
G1 X134.569 Y130.022 E0.09359
G1 X135.572 Y129.539 E0.12806
G1 X136.515 Y129.187 E0.15923
G1 X137.385 Y128.944 E0.1872
G1 X138.488 Y128.74 E0.22193
G1 X139.624 Y128.644 E0.25723
G1 X140.304 Y128.628 E0.2783
G1 X159.309 Y128.628 E0.86679
G1 X160.207 Y128.642 E0.8946
G1 X161.212 Y128.704 E0.92578
G1 X162.209 Y128.857 E0.95701
G1 X163.187 Y129.098 E0.9882
G1 X164.138 Y129.422 E1.01931
G1 X164.997 Y129.799 E1.04836
G1 X165.94 Y130.32 E1.08172
G1 X166.774 Y130.884 E1.1129
G1 X167.555 Y131.519 E1.14407
G1 X168.229 Y132.171 E1.1731
G1 X168.933 Y132.986 E1.20645
G1 X169.519 Y133.802 E1.23756
G1 X169.982 Y134.578 E1.26554
G1 X170.464 Y135.581 E1.3
G1 X170.815 Y136.524 E1.33116
G1 X171.058 Y137.394 E1.35913
G1 X171.262 Y138.498 E1.39389
G1 X171.358 Y139.673 E1.4304
G1 X171.372 Y140.33 E1.45074
G1 X171.371 Y159.406 E2.04144
G1 X171.359 Y160.185 E2.06556
G1 X171.299 Y161.192 E2.0968
G1 X171.161 Y162.119 E2.12582
G1 X170.911 Y163.164 E2.15909
G1 X170.612 Y164.054 E2.18816
G1 X170.18 Y165.04 E2.2215
G1 X169.694 Y165.921 E2.25265
G1 X169.132 Y166.756 E2.28382
G1 X168.521 Y167.512 E2.31392
G1 X167.848 Y168.212 E2.34399
G1 X167.032 Y168.92 E2.37744
G1 X166.216 Y169.507 E2.40857
G1 X165.411 Y169.988 E2.43761
G1 X164.442 Y170.456 E2.47093
G1 X163.564 Y170.787 E2.49998
G1 X162.561 Y171.067 E2.53223
G1 X161.523 Y171.259 E2.56491
G1 X160.376 Y171.356 E2.60056
G1 X159.67 Y171.372 E2.62243
G1 X140.56 Y171.371 E3.21417
G1 X139.81 Y171.359 E3.2374
G1 X138.803 Y171.299 E3.26863
G1 X137.876 Y171.16 E3.29766
G1 X136.829 Y170.91 E3.33099
G1 X135.973 Y170.623 E3.35895
G1 X134.956 Y170.178 E3.39332
G1 X134.103 Y169.709 E3.42347
G1 X133.239 Y169.127 E3.45572
G1 X132.458 Y168.495 E3.48683
G1 X131.807 Y167.869 E3.5148
G1 X131.077 Y167.028 E3.54928
G1 X130.49 Y166.211 E3.58043
G1 X130.009 Y165.406 E3.60947
G1 X129.542 Y164.437 E3.64278
G1 X129.211 Y163.559 E3.67184
G1 X128.923 Y162.521 E3.70519
G1 X128.741 Y161.518 E3.73676
G1 X128.643 Y160.341 E3.77333
G1 X128.628 Y159.658 E3.79448
G1 X128.629 Y140.519 E4.38713
G1 X128.64 Y139.819 E4.4088
G1 X128.702 Y138.796 E4.44054
G1 X128.848 Y137.834 E4.47067
G1 X129.092 Y136.823 E4.50287
G1 X129.379 Y135.967 E4.53083
G1 X129.825 Y134.949 E4.56525
G1 X130.276 Y134.127 E4.59428
G1 X130.877 Y133.233 E4.62764
G1 X131.51 Y132.453 E4.65874
G1 X132.136 Y131.802 E4.68671
G0 F9000 X132.419 Y132.074
G1 F3000 X133.206 Y131.391 E4.71897
G1 X133.995 Y130.822 E4.7491
G1 X134.77 Y130.359 E4.77705
G1 X135.709 Y129.906 E4.80933
G1 X136.62 Y129.565 E4.83945
G1 X137.49 Y129.322 E4.86743
G1 X138.521 Y129.131 E4.89989
G1 X139.657 Y129.035 E4.9352
G1 X140.313 Y129.02 E4.95551
G1 X159.303 Y129.02 E5.54354
G1 X160.183 Y129.033 E5.57079
G1 X161.153 Y129.092 E5.60089
G1 X162.116 Y129.238 E5.63105
G1 X163.061 Y129.469 E5.66117
G1 X163.98 Y129.781 E5.69122
G1 X164.839 Y130.158 E5.72027
G1 X165.721 Y130.645 E5.75147
G1 X166.527 Y131.188 E5.78156
G1 X167.282 Y131.801 E5.81168
G1 X167.956 Y132.453 E5.84071
G1 X168.615 Y133.215 E5.87191
G1 X169.182 Y134.003 E5.90197
G1 X169.645 Y134.779 E5.92995
G1 X170.097 Y135.718 E5.96222
G1 X170.437 Y136.629 E5.99233
G1 X170.68 Y137.499 E6.0203
G1 X170.871 Y138.53 E6.05277
G1 X170.966 Y139.681 E6.08853
G1 X170.98 Y140.33 E6.10863
G1 X170.979 Y159.4 E6.69914
G1 X170.968 Y160.162 E6.72274
G1 X170.911 Y161.134 E6.75289
G1 X170.773 Y162.061 E6.78191
G1 X170.539 Y163.039 E6.81305
G1 X170.24 Y163.929 E6.84212
G1 X169.836 Y164.851 E6.87329
G1 X169.368 Y165.703 E6.90339
G1 X168.827 Y166.51 E6.93347
G1 X168.238 Y167.24 E6.96252
G1 X167.565 Y167.94 E6.99259
G1 X166.803 Y168.602 E7.02384
G1 X166.015 Y169.17 E7.05392
G1 X165.21 Y169.651 E7.08296
G1 X164.303 Y170.089 E7.11415
G1 X163.459 Y170.409 E7.1421
G1 X162.456 Y170.689 E7.17435
G1 X161.49 Y170.868 E7.20477
G1 X160.343 Y170.965 E7.24041
G1 X159.67 Y170.98 E7.26126
G1 X140.566 Y170.979 E7.85281
G1 X139.833 Y170.968 E7.87551
G1 X138.861 Y170.911 E7.90566
G1 X137.934 Y170.772 E7.93469
G1 X136.954 Y170.538 E7.96589
G1 X136.098 Y170.251 E7.99385
G1 X135.145 Y169.834 E8.02606
G1 X134.292 Y169.365 E8.0562
G1 X133.485 Y168.822 E8.08632
G1 X132.73 Y168.212 E8.11637
G1 X132.079 Y167.586 E8.14434
G1 X131.395 Y166.799 E8.17663
G1 X130.827 Y166.01 E8.20673
G1 X130.346 Y165.205 E8.23577
G1 X129.909 Y164.298 E8.26694
G1 X129.589 Y163.454 E8.29489
G1 X129.309 Y162.45 E8.32717
G1 X129.132 Y161.485 E8.35755
G1 X129.034 Y160.308 E8.39412
G1 X129.02 Y159.658 E8.41425
G1 X129.021 Y140.525 E9.00671
G1 X129.031 Y139.842 E9.02786
G1 X129.09 Y138.855 E9.05848
G1 X129.236 Y137.893 E9.08861
G1 X129.464 Y136.948 E9.11871
G1 X129.751 Y136.092 E9.14667
G1 X130.169 Y135.138 E9.17892
G1 X130.62 Y134.316 E9.20795
G1 X131.182 Y133.48 E9.23914
G1 X131.793 Y132.725 E9.26922
G1 X132.419 Y132.074 E9.29719
G0 F9000 X132.702 Y132.346
G1 F3000 X133.436 Y131.709 E9.32728
G1 X134.196 Y131.159 E9.35633
G1 X134.971 Y130.696 E9.38428
G1 X135.847 Y130.273 E9.41441
G1 X136.725 Y129.943 E9.44345
G1 X137.595 Y129.7 E9.47142
G1 X138.554 Y129.522 E9.50162
G1 X139.69 Y129.426 E9.53693
G1 X140.322 Y129.412 E9.5565
G1 X159.298 Y129.412 E10.1441
G1 X160.16 Y129.424 E10.17079
G1 X161.095 Y129.48 E10.1998
G1 X162.024 Y129.619 E10.22888
G1 X162.935 Y129.84 E10.25791
G1 X163.822 Y130.14 E10.2869
G1 X164.681 Y130.517 E10.31595
G1 X165.502 Y130.97 E10.34499
G1 X166.28 Y131.493 E10.37402
G1 X167.009 Y132.083 E10.40306
G1 X167.683 Y132.735 E10.43209
G1 X168.297 Y133.444 E10.46114
G1 X168.845 Y134.204 E10.49015
G1 X169.308 Y134.98 E10.51813
G1 X169.73 Y135.856 E10.54824
G1 X170.059 Y136.734 E10.57727
G1 X170.302 Y137.604 E10.60524
G1 X170.48 Y138.563 E10.63545
G1 X170.574 Y139.69 E10.67047
G1 X170.588 Y140.33 E10.69029
G1 X170.587 Y159.395 E11.28064
G1 X170.577 Y160.139 E11.30368
G1 X170.523 Y161.076 E11.33274
G1 X170.385 Y162.003 E11.36176
G1 X170.167 Y162.914 E11.39077
G1 X169.868 Y163.804 E11.41984
G1 X169.492 Y164.663 E11.44888
G1 X169.042 Y165.485 E11.4779
G1 X168.521 Y166.264 E11.50692
G1 X167.955 Y166.968 E11.53489
G1 X167.282 Y167.668 E11.56496
G1 X166.573 Y168.284 E11.59404
G1 X165.814 Y168.833 E11.62304
G1 X165.009 Y169.314 E11.65208
G1 X164.164 Y169.722 E11.68114
G1 X163.32 Y170.042 E11.70909
G1 X162.384 Y170.304 E11.73919
G1 X161.457 Y170.477 E11.76839
G1 X160.31 Y170.574 E11.80403
G1 X159.67 Y170.588 E11.82385
G1 X140.571 Y170.587 E12.41526
G1 X139.856 Y170.577 E12.4374
G1 X138.919 Y170.523 E12.46646
G1 X137.992 Y170.384 E12.49549
G1 X137.079 Y170.166 E12.52455
G1 X136.223 Y169.879 E12.55251
G1 X135.333 Y169.49 E12.58259
G1 X134.51 Y169.039 E12.61165
G1 X133.731 Y168.517 E12.64068
G1 X133.002 Y167.929 E12.66968
G1 X132.351 Y167.303 E12.69765
G1 X131.713 Y166.569 E12.72776
G1 X131.164 Y165.809 E12.7568
G1 X130.683 Y165.004 E12.78583
G1 X130.276 Y164.159 E12.81488
G1 X129.956 Y163.315 E12.84283
G1 X129.694 Y162.379 E12.87292
G1 X129.523 Y161.452 E12.90211
G1 X129.426 Y160.299 E12.93794
G1 X129.412 Y159.658 E12.9578
G1 X129.413 Y140.531 E13.55007
G1 X129.423 Y139.848 E13.57122
G1 X129.478 Y138.913 E13.60022
G1 X129.617 Y137.985 E13.62928
G1 X129.836 Y137.073 E13.65832
G1 X130.123 Y136.217 E13.68628
G1 X130.513 Y135.327 E13.71636
G1 X130.964 Y134.505 E13.7454
G1 X131.487 Y133.726 E13.77445
G1 X132.076 Y132.997 E13.80347
G1 X132.702 Y132.346 E13.83144
G0 F9000 X132.985 Y132.618
G1 F3000 X133.666 Y132.026 E13.85938
G1 X134.397 Y131.496 E13.88734
G1 X135.172 Y131.033 E13.91529
G1 X135.986 Y130.64 E13.94328
G1 X136.83 Y130.321 E13.97122
G1 X137.7 Y130.078 E13.99919
G1 X138.587 Y129.913 E14.02713
G1 X139.723 Y129.817 E14.06243
G1 X140.33 Y129.804 E14.08123
G1 X159.293 Y129.804 E14.66842
G1 X160.137 Y129.815 E14.69456
G1 X161.038 Y129.868 E14.72251
G1 X161.932 Y130 E14.75049
G1 X162.81 Y130.211 E14.77845
G1 X163.665 Y130.499 E14.80639
G1 X164.492 Y130.861 E14.83435
G1 X165.284 Y131.296 E14.86233
G1 X166.034 Y131.798 E14.89027
G1 X166.737 Y132.365 E14.91824
G1 X167.387 Y132.992 E14.9462
G1 X167.979 Y133.674 E14.97417
G1 X168.508 Y134.405 E15.00211
G1 X168.971 Y135.181 E15.03009
G1 X169.363 Y135.994 E15.05804
G1 X169.681 Y136.839 E15.08599
G1 X169.924 Y137.709 E15.11397
G1 X170.089 Y138.596 E15.1419
G1 X170.183 Y139.723 E15.17692
G1 X170.196 Y140.33 E15.19572
G1 X170.195 Y159.39 E15.78592
G1 X170.186 Y160.117 E15.80843
G1 X170.135 Y161.019 E15.83641
G1 X170.004 Y161.912 E15.86436
G1 X169.795 Y162.79 E15.8923
G1 X169.509 Y163.647 E15.92028
G1 X169.148 Y164.475 E15.94825
G1 X168.716 Y165.267 E15.97618
G1 X168.215 Y166.018 E16.00414
G1 X167.649 Y166.722 E16.03211
G1 X167.024 Y167.373 E16.06005
G1 X166.343 Y167.967 E16.08804
G1 X165.612 Y168.497 E16.116
G1 X164.838 Y168.961 E16.14394
G1 X164.025 Y169.355 E16.17191
G1 X163.181 Y169.675 E16.19986
G1 X162.312 Y169.919 E16.22781
G1 X161.424 Y170.086 E16.25579
G1 X160.277 Y170.183 E16.29144
G1 X159.67 Y170.196 E16.31024
G1 X140.576 Y170.195 E16.90149
G1 X139.878 Y170.186 E16.9231
G1 X138.976 Y170.135 E16.95108
G1 X138.083 Y170.003 E16.97903
G1 X137.204 Y169.794 E17.00701
G1 X136.348 Y169.507 E17.03496
G1 X135.521 Y169.146 E17.0629
G1 X134.728 Y168.713 E17.09088
G1 X133.977 Y168.212 E17.11884
G1 X133.274 Y167.646 E17.14678
G1 X132.623 Y167.02 E17.17475
G1 X132.03 Y166.339 E17.20271
G1 X131.5 Y165.608 E17.23067
G1 X131.036 Y164.833 E17.25864
G1 X130.643 Y164.02 E17.2866
G1 X130.323 Y163.176 E17.31455
G1 X130.079 Y162.307 E17.3425
G1 X129.914 Y161.419 E17.37047
G1 X129.817 Y160.266 E17.4063
G1 X129.804 Y159.658 E17.42513
G1 X129.805 Y140.536 E18.01725
G1 X129.814 Y139.871 E18.03784
G1 X129.866 Y138.97 E18.06579
G1 X129.998 Y138.076 E18.09377
G1 X130.208 Y137.198 E18.12172
G1 X130.495 Y136.342 E18.14968
G1 X130.857 Y135.515 E18.17763
G1 X131.29 Y134.723 E18.20558
G1 X131.792 Y133.972 E18.23356
G1 X132.359 Y133.269 E18.26152
G1 X132.985 Y132.618 E18.28949
G1 F2700 E17.78949
;MESH:CalibrationCube
G0 F9000 X140.414 Y139.335
G0 X159.412 Y159.412
;TYPE:WALL-INNER
G1 F2700 E18.28949
G1 F3000 X159.412 Y140.588 E18.87238
G1 X140.588 Y140.588 E19.45527
G1 X140.588 Y159.412 E20.03815
G1 X159.412 Y159.412 E20.62104
G0 F9000 X159.804 Y159.804
;TYPE:WALL-OUTER
G1 F3000 X159.804 Y140.196 E21.22821
G1 X140.196 Y140.196 E21.83537
G1 X140.196 Y159.804 E22.44254
G1 X159.804 Y159.804 E23.0497
G0 F9000 X159.53 Y159.53
G0 X159.316 Y159.06
G0 X159.06 Y159.06
;TYPE:SKIN
G1 F3000 X140.94 Y159.06 E23.61079
G1 X140.94 Y140.94 E24.17188
G1 X159.06 Y140.94 E24.73297
G1 X159.06 Y159.06 E25.29406
G0 F9000 X159.316 Y159.06
G0 X159.316 Y141.678
G0 X158.863 Y141.678
G1 F3000 X158.321 Y141.136 E25.3178
G0 F9000 X157.767 Y141.136
G1 F3000 X158.863 Y142.232 E25.36579
G0 F9000 X158.863 Y142.786
G1 F3000 X157.213 Y141.136 E25.43805
G0 F9000 X156.658 Y141.136
G1 F3000 X158.863 Y143.341 E25.53461
G0 F9000 X158.863 Y143.895
G1 F3000 X156.104 Y141.136 E25.65543
G0 F9000 X155.55 Y141.136
G1 F3000 X158.863 Y144.449 E25.80051
G0 F9000 X158.863 Y145.004
G1 F3000 X154.995 Y141.136 E25.96989
G0 F9000 X154.441 Y141.136
G1 F3000 X158.863 Y145.558 E26.16354
G0 F9000 X158.863 Y146.113
G1 F3000 X153.886 Y141.136 E26.38149
G0 F9000 X153.332 Y141.136
G1 F3000 X158.863 Y146.667 E26.6237
G0 F9000 X158.863 Y147.221
G1 F3000 X152.778 Y141.136 E26.89017
G0 F9000 X152.223 Y141.136
G1 F3000 X158.863 Y147.776 E27.18094
G0 F9000 X158.863 Y148.33
G1 F3000 X151.669 Y141.136 E27.49598
G0 F9000 X151.115 Y141.136
G1 F3000 X158.863 Y148.884 E27.83527
G0 F9000 X158.863 Y149.439
G1 F3000 X150.56 Y141.136 E28.19887
G0 F9000 X150.006 Y141.136
G1 F3000 X158.863 Y149.993 E28.58673
G0 F9000 X158.863 Y150.547
G1 F3000 X149.451 Y141.136 E28.99888
G0 F9000 X148.897 Y141.136
G1 F3000 X158.863 Y151.102 E29.4353
G0 F9000 X158.863 Y151.656
G1 F3000 X148.343 Y141.136 E29.89599
G0 F9000 X147.788 Y141.136
G1 F3000 X158.863 Y152.211 E30.38098
G0 F9000 X158.863 Y152.765
G1 F3000 X147.234 Y141.136 E30.89023
G0 F9000 X146.68 Y141.136
G1 F3000 X158.863 Y153.319 E31.42374
G0 F9000 X158.863 Y153.874
G1 F3000 X146.125 Y141.136 E31.98155
G0 F9000 X145.571 Y141.136
M104 S220
G1 F3000 X158.863 Y154.428 E32.56363
G0 F9000 X158.863 Y154.982
G1 F3000 X145.016 Y141.136 E33.16999
G0 F9000 X144.462 Y141.136
G1 F3000 X158.863 Y155.537 E33.80062
G0 F9000 X158.863 Y156.091
G1 F3000 X143.908 Y141.136 E34.45553
G0 F9000 X143.353 Y141.136
G1 F3000 X158.863 Y156.646 E35.13473
G0 F9000 X158.863 Y157.2
G1 F3000 X142.799 Y141.136 E35.83819
G0 F9000 X142.245 Y141.136
G1 F3000 X158.863 Y157.754 E36.56592
G0 F9000 X158.863 Y158.309
G1 F3000 X141.69 Y141.136 E37.31795
G0 F9000 X141.135 Y141.135
G1 F3000 X158.863 Y158.863 E38.09428
G0 F9000 X158.309 Y158.863
G1 F3000 X141.135 Y141.69 E38.84633
G0 F9000 X141.135 Y142.244
G1 F3000 X157.754 Y158.863 E39.5741
G0 F9000 X157.2 Y158.863
G1 F3000 X141.135 Y142.798 E40.27761
G0 F9000 X141.135 Y143.353
G1 F3000 X156.646 Y158.863 E40.95684
G0 F9000 X156.091 Y158.863
G1 F3000 X141.135 Y143.907 E41.61178
G0 F9000 X141.135 Y144.461
G1 F3000 X155.537 Y158.863 E42.24247
G0 F9000 X154.982 Y158.863
G1 F3000 X141.135 Y145.016 E42.84884
G0 F9000 X141.135 Y145.57
G1 F3000 X154.428 Y158.863 E43.43096
G0 F9000 X153.874 Y158.863
G1 F3000 X141.135 Y146.125 E43.9888
G0 F9000 X141.135 Y146.679
G1 F3000 X153.319 Y158.863 E44.52235
G0 F9000 X152.765 Y158.863
G1 F3000 X141.135 Y147.233 E45.03165
G0 F9000 X141.135 Y147.788
G1 F3000 X152.211 Y158.863 E45.51666
G0 F9000 X151.656 Y158.863
G1 F3000 X141.135 Y148.342 E45.97739
G0 F9000 X141.135 Y148.896
G1 F3000 X151.102 Y158.863 E46.41386
G0 F9000 X150.547 Y158.863
G1 F3000 X141.135 Y149.451 E46.82602
G0 F9000 X141.135 Y150.005
G1 F3000 X149.993 Y158.863 E47.21393
G0 F9000 X149.439 Y158.863
G1 F3000 X141.135 Y150.56 E47.57755
G0 F9000 X141.135 Y151.114
G1 F3000 X148.884 Y158.863 E47.91689
G0 F9000 X148.33 Y158.863
G1 F3000 X141.135 Y151.668 E48.23197
G0 F9000 X141.135 Y152.223
G1 F3000 X147.776 Y158.863 E48.52276
G0 F9000 X147.221 Y158.863
