;FLAVOR:Marlin
;TIME:10673
;Filament used: 8.00455m
;Layer height: 0.2
;MINX:86.199
;MINY:86.199
;MINZ:0.2
;MAXX:213.801
;MAXY:213.801
;MAXZ:59.8
;TARGET_MACHINE.NAME:Creality CR-10
;Post-Processed by AutoTowersGenerator
;AutoTowersGenerator: Post-processing a print speed SpeedTower
;AutoTowersGenerator: Base height = 1.0 mm
;AutoTowersGenerator: Section height = 8.4 mm
;AutoTowersGenerator: Initial printed layer height = 0.2 mm
;AutoTowersGenerator: Printed layer height = 0.2 mm
;AutoTowersGenerator: Starting speed = 100.0 mm/s
;AutoTowersGenerator: Speed change = 50.0 mm/s
;AutoTowersGenerator: Reference speed = 50.0 mm/s
;AutoTowersGenerator: Enable LCD messages = False
;Generated with Cura_SteamEngine 5.6.0
M140 S50
M105
M190 S50
M104 S180
M105
M109 S180
M82 ;absolute extrusion mode
; Script based on an original created by tjjfvi (https://github.com/tjjfvi)
	; An up-to-date version of the tjjfvi's original script can be found
	; here:  https://csi.t6.fyi/
	; Note - This script will only work in Cura V4.2 and above!
	; --- Global Settings
	; layer_height = 0.2
	; smooth_spiralized_contours = True
	; magic_mesh_surface_mode = normal
	; machine_extruder_count = 1
	; --- Single Extruder Settings
	; speed_z_hop = 5
	; retraction_amount = 0.75
	; retraction_hop = 0.2
	; retraction_hop_enabled = False
	; retraction_enable = True
	; retraction_speed = 45
	; retraction_retract_speed = 45
	; retraction_prime_speed = 45
	; speed_travel = 150.0
	
	
	
	M201 X500.00 Y500.00 Z100.00 E5000.00 ;Setup machine max acceleration
	M203 X500.00 Y500.00 Z10.00 E50.00 ;Setup machine max feedrate
	M204 P500.00 R1000.00 T500.00 ;Setup Print/Retract/Travel acceleration
	M205 X8.00 Y8.00 Z0.40 E5.00 ;Setup Jerk
	M220 S100 ;Reset Feedrate
	M221 S100 ;Reset Flowrate
	
	G28 ;Home
	
	G92 E0 ;Reset Extruder
	G1 Z2.0 F3000 ;Move Z Axis up
	G1 X10.1 Y20 Z0.28 F5000.0 ;Move to start position
	G1 X10.1 Y200.0 Z0.28 F1500.0 E15 ;Draw the first line
	G1 X10.4 Y200.0 Z0.28 F5000.0 ;Move to side a little
	G1 X10.4 Y20 Z0.28 F1500.0 E30 ;Draw the second line
	G92 E0 ;Reset Extruder
	G1 Z2.0 F3000 ;Move Z Axis up
G92 E0
G92 E0
G1 F2700 E-0.75
;LAYER_COUNT:299
;LAYER:0
M107
G0 F6000 X89.655 Y89.212 Z0.2
;TYPE:SKIRT
G1 F2700 E0
G1 F1200 X90.391 Y88.575 E0.03237
G1 X91.123 Y88.045 E0.06243
G1 X92.02 Y87.51 E0.09717
G1 X92.898 Y87.089 E0.12956
G1 X93.811 Y86.747 E0.16198
G1 X94.748 Y86.488 E0.19432
G1 X95.715 Y86.31 E0.22702
G1 X96.854 Y86.214 E0.26504
G1 X97.511 Y86.199 E0.2869
G1 X202.105 Y86.199 E3.76571
G1 X202.985 Y86.212 E3.79498
G1 X203.957 Y86.271 E3.82737
G1 X204.92 Y86.417 E3.85976
G1 X205.867 Y86.648 E3.89218
G1 X206.755 Y86.948 E3.92336
G1 X207.647 Y87.338 E3.95574
G1 X208.53 Y87.825 E3.98928
G1 X209.281 Y88.327 E4.01932
G1 X210.096 Y88.985 E4.05416
G1 X210.794 Y89.663 E4.08653
G1 X211.43 Y90.4 E4.1189
G1 X212 Y91.19 E4.1513
G1 X212.462 Y91.966 E4.18134
G1 X212.916 Y92.908 E4.21612
G1 X213.245 Y93.786 E4.24731
G1 X213.514 Y94.758 E4.28085
G1 X213.691 Y95.724 E4.31352
G1 X213.786 Y96.854 E4.35123
G1 X213.801 Y97.529 E4.37369
G1 X213.8 Y105.202 E4.62889
G1 X213.789 Y105.965 E4.65427
G1 X213.732 Y106.938 E4.68669
G1 X213.587 Y107.901 E4.71908
G1 X213.358 Y108.847 E4.75145
G1 X213.047 Y109.771 E4.78388
G1 X212.655 Y110.662 E4.81626
G1 X212.187 Y111.514 E4.84859
G1 X211.665 Y112.295 E4.87983
G1 X211.032 Y113.08 E4.91337
G1 X210.407 Y113.731 E4.94339
G1 X209.618 Y114.419 E4.97821
G1 X208.858 Y114.969 E5.00941
G1 X207.991 Y115.486 E5.04298
G1 X207.113 Y115.908 E5.07538
G1 X206.202 Y116.25 E5.10775
G1 X205.263 Y116.511 E5.14016
G1 X204.303 Y116.687 E5.17263
G1 X203.271 Y116.783 E5.2071
G1 X200.594 Y116.9 E5.29622
G1 X198.12 Y117.079 E5.37872
G1 X195.611 Y117.331 E5.46259
G1 X193.069 Y117.66 E5.54784
G1 X190.635 Y118.044 E5.6298
G1 X188.118 Y118.516 E5.71497
G1 X185.706 Y119.036 E5.79704
G1 X183.221 Y119.65 E5.88218
G1 X180.813 Y120.317 E5.96528
G1 X178.416 Y121.054 E6.04869
G1 X176.021 Y121.865 E6.13279
G1 X173.657 Y122.741 E6.21664
G1 X171.32 Y123.683 E6.30045
G1 X168.995 Y124.697 E6.38481
G1 X166.752 Y125.752 E6.46726
G1 X164.499 Y126.891 E6.55122
G1 X162.252 Y128.108 E6.63622
G1 X160.108 Y129.348 E6.71859
G1 X157.951 Y130.679 E6.8029
G1 X155.853 Y132.057 E6.88638
G1 X153.768 Y133.515 E6.971
G1 X151.785 Y134.984 E7.05308
G1 X149.777 Y136.561 E7.138
G1 X147.873 Y138.147 E7.22042
G1 X145.963 Y139.831 E7.30512
G1 X144.097 Y141.572 E7.39
G1 X142.337 Y143.309 E7.47224
G1 X140.598 Y145.127 E7.55592
G1 X138.902 Y147.002 E7.64001
G1 X137.237 Y148.953 E7.72532
G1 X135.705 Y150.852 E7.80647
G1 X134.167 Y152.875 E7.89099
G1 X132.708 Y154.911 E7.9743
G1 X131.28 Y157.028 E8.05924
G1 X129.955 Y159.115 E8.14146
G1 X128.639 Y161.325 E8.22701
G1 X127.443 Y163.47 E8.30869
G1 X126.246 Y165.765 E8.39478
G1 X125.169 Y167.981 E8.47673
G1 X124.132 Y170.28 E8.56061
G1 X123.139 Y172.658 E8.64632
G1 X122.253 Y174.962 E8.72843
G1 X121.408 Y177.356 E8.81287
G1 X120.644 Y179.737 E8.89604
G1 X119.945 Y182.145 E8.97943
G1 X119.311 Y184.585 E9.06328
G1 X118.737 Y187.087 E9.14866
G1 X118.251 Y189.513 E9.23095
G1 X117.823 Y192.013 E9.31531
G1 X117.473 Y194.487 E9.39842
G1 X117.193 Y196.971 E9.48156
G1 X116.979 Y199.47 E9.56498
G1 X116.835 Y202.047 E9.65083
G1 X116.783 Y203.261 E9.69124
G1 X116.692 Y204.267 E9.72484
G1 X116.519 Y205.225 E9.75721
G1 X116.261 Y206.165 E9.78964
G1 X115.923 Y207.077 E9.82199
G1 X115.537 Y207.894 E9.85204
G1 X115.008 Y208.796 E9.88682
G1 X114.441 Y209.587 E9.91919
G1 X113.831 Y210.3 E9.9504
G1 X113.109 Y211.005 E9.98396
G1 X112.354 Y211.62 E10.01635
G1 X111.547 Y212.165 E10.04874
G1 X110.696 Y212.637 E10.0811
G1 X109.805 Y213.033 E10.11353
G1 X108.884 Y213.347 E10.1459
G1 X107.938 Y213.579 E10.17829
G1 X106.978 Y213.727 E10.2106
G1 X106.096 Y213.788 E10.24001
G1 X105.472 Y213.801 E10.26076
G1 X97.763 Y213.8 E10.51717
G1 X97.03 Y213.789 E10.54155
G1 X96.058 Y213.732 E10.57393
G1 X95.095 Y213.586 E10.60633
G1 X94.149 Y213.357 E10.6387
G1 X93.225 Y213.045 E10.67114
G1 X92.335 Y212.653 E10.70349
G1 X91.512 Y212.202 E10.7347
G1 X90.673 Y211.641 E10.76827
G1 X89.969 Y211.075 E10.79831
G1 X89.216 Y210.35 E10.83308
G1 X88.579 Y209.614 E10.86545
G1 X88.049 Y208.883 E10.89548
G1 X87.513 Y207.986 E10.93024
G1 X87.091 Y207.108 E10.96264
G1 X86.749 Y206.196 E10.99504
G1 X86.489 Y205.258 E11.02741
G1 X86.311 Y204.289 E11.06018
G1 X86.213 Y203.11 E11.09953
G1 X86.199 Y202.459 E11.12118
G1 X86.2 Y97.724 E14.60468
G1 X86.211 Y97.024 E14.62797
G1 X86.269 Y96.051 E14.66039
G1 X86.415 Y95.088 E14.69278
G1 X86.645 Y94.142 E14.72517
G1 X86.958 Y93.219 E14.75758
G1 X87.35 Y92.329 E14.78993
G1 X87.82 Y91.476 E14.82232
G1 X88.363 Y90.668 E14.8547
G1 X88.93 Y89.964 E14.88476
G1 X89.655 Y89.212 E14.91951
G0 F6000 X89.917 Y89.514
G1 F1200 X90.626 Y88.899 E14.95072
G1 X91.358 Y88.369 E14.98078
G1 X92.194 Y87.87 E15.01316
G1 X93.039 Y87.463 E15.04436
G1 X93.918 Y87.132 E15.0756
G1 X94.821 Y86.881 E15.10677
G1 X95.749 Y86.709 E15.13816
G1 X96.888 Y86.613 E15.17618
G1 X97.52 Y86.599 E15.1972
G1 X202.099 Y86.599 E18.67552
G1 X202.961 Y86.611 E18.70419
G1 X203.898 Y86.667 E18.73541
G1 X204.826 Y86.806 E18.76662
G1 X205.739 Y87.027 E18.79786
G1 X206.595 Y87.315 E18.8279
G1 X207.487 Y87.705 E18.86028
G1 X208.308 Y88.158 E18.89147
G1 X209.059 Y88.66 E18.92151
G1 X209.818 Y89.272 E18.95394
G1 X210.492 Y89.925 E18.98516
G1 X211.106 Y90.634 E19.01635
G1 X211.656 Y91.395 E19.04758
G1 X212.118 Y92.171 E19.07762
G1 X212.541 Y93.048 E19.11
G1 X212.87 Y93.926 E19.14119
G1 X213.121 Y94.831 E19.17242
G1 X213.292 Y95.758 E19.20378
G1 X213.387 Y96.888 E19.24149
G1 X213.401 Y97.529 E19.26282
G1 X213.4 Y105.197 E19.51786
G1 X213.39 Y105.942 E19.54264
G1 X213.336 Y106.879 E19.57385
G1 X213.198 Y107.808 E19.60509
G1 X212.979 Y108.72 E19.63629
G1 X212.681 Y109.61 E19.6675
G1 X212.304 Y110.47 E19.69874
G1 X211.854 Y111.292 E19.7299
G1 X211.332 Y112.073 E19.76115
G1 X210.743 Y112.803 E19.79235
G1 X210.118 Y113.454 E19.82236
G1 X209.383 Y114.095 E19.8548
G1 X208.623 Y114.645 E19.886
G1 X207.817 Y115.126 E19.91722
G1 X206.972 Y115.534 E19.94843
G1 X206.094 Y115.865 E19.97964
G1 X205.19 Y116.118 E20.01086
G1 X204.266 Y116.289 E20.04211
G1 X203.254 Y116.383 E20.07592
G1 X200.577 Y116.5 E20.16504
G1 X198.087 Y116.68 E20.24808
G1 X195.56 Y116.934 E20.33255
G1 X193.018 Y117.263 E20.4178
G1 X190.565 Y117.65 E20.5004
G1 X188.038 Y118.124 E20.58591
G1 X185.622 Y118.645 E20.66811
G1 X183.125 Y119.262 E20.75366
G1 X180.695 Y119.935 E20.83753
G1 X178.288 Y120.675 E20.92128
G1 X175.893 Y121.486 E21.00538
G1 X173.507 Y122.37 E21.09001
G1 X171.16 Y123.316 E21.17418
G1 X168.835 Y124.33 E21.25854
G1 X166.582 Y125.39 E21.34136
G1 X164.309 Y126.539 E21.42607
G1 X162.062 Y127.756 E21.51106
G1 X159.908 Y129.002 E21.59382
G1 X157.731 Y130.345 E21.6789
G1 X155.633 Y131.723 E21.76239
G1 X153.539 Y133.187 E21.84737
G1 X151.538 Y134.669 E21.93019
G1 X149.53 Y136.246 E22.01511
G1 X147.608 Y137.847 E22.09831
G1 X145.698 Y139.531 E22.183
G1 X143.824 Y141.279 E22.26823
G1 X142.056 Y143.024 E22.35086
G1 X140.309 Y144.85 E22.43491
G1 X138.605 Y146.734 E22.5194
G1 X136.933 Y148.693 E22.60506
G1 X135.394 Y150.601 E22.68659
G1 X133.842 Y152.642 E22.77187
G1 X132.376 Y154.687 E22.85556
G1 X130.948 Y156.804 E22.94049
G1 X129.611 Y158.91 E23.02346
G1 X128.295 Y161.12 E23.10901
G1 X127.088 Y163.285 E23.19146
G1 X125.891 Y165.58 E23.27755
G1 X124.809 Y167.806 E23.35987
G1 X123.767 Y170.116 E23.44415
G1 X122.77 Y172.504 E23.53022
G1 X121.88 Y174.818 E23.61268
G1 X121.031 Y177.223 E23.69751
G1 X120.263 Y179.615 E23.78107
G1 X119.561 Y182.033 E23.86481
G1 X118.924 Y184.484 E23.94904
G1 X118.347 Y186.998 E24.03483
G1 X117.859 Y189.434 E24.11746
G1 X117.429 Y191.946 E24.20223
G1 X117.077 Y194.431 E24.2857
G1 X116.794 Y196.937 E24.36958
G1 X116.581 Y199.436 E24.453
G1 X116.435 Y202.03 E24.53942
G1 X116.383 Y203.244 E24.57983
G1 X116.298 Y204.197 E24.61165
G1 X116.133 Y205.12 E24.64284
G1 X115.886 Y206.026 E24.67407
G1 X115.561 Y206.906 E24.70527
G1 X115.175 Y207.723 E24.73533
G1 X114.683 Y208.563 E24.76771
G1 X114.137 Y209.327 E24.79894
G1 X113.527 Y210.04 E24.83015
G1 X112.856 Y210.695 E24.86134
G1 X112.129 Y211.289 E24.89256
G1 X111.352 Y211.816 E24.92379
G1 X110.533 Y212.272 E24.95496
G1 X109.675 Y212.655 E24.98622
G1 X108.788 Y212.959 E25.0174
G1 X107.877 Y213.184 E25.04861
G1 X106.95 Y213.328 E25.07981
G1 X106.088 Y213.388 E25.10855
G1 X105.472 Y213.401 E25.12905
G1 X97.769 Y213.4 E25.38525
G1 X97.053 Y213.39 E25.40907
G1 X96.117 Y213.336 E25.44025
G1 X95.188 Y213.197 E25.47149
G1 X94.276 Y212.978 E25.50269
G1 X93.386 Y212.679 E25.53392
G1 X92.527 Y212.302 E25.56512
G1 X91.704 Y211.851 E25.59633
G1 X90.924 Y211.329 E25.62755
G1 X90.22 Y210.763 E25.65759
G1 X89.518 Y210.088 E25.68998
G1 X88.903 Y209.379 E25.7212
G1 X88.373 Y208.648 E25.75123
G1 X87.873 Y207.812 E25.78363
G1 X87.465 Y206.967 E25.81484
G1 X87.134 Y206.089 E25.84605
G1 X86.882 Y205.185 E25.87726
G1 X86.71 Y204.256 E25.90868
G1 X86.612 Y203.077 E25.94803
G1 X86.599 Y202.459 E25.96859
G1 X86.6 Y97.73 E29.45189
G1 X86.61 Y97.047 E29.47461
G1 X86.665 Y96.11 E29.50583
G1 X86.804 Y95.182 E29.53704
G1 X87.024 Y94.27 E29.56824
G1 X87.324 Y93.38 E29.59948
G1 X87.701 Y92.521 E29.63068
G1 X88.152 Y91.699 E29.66187
G1 X88.675 Y90.919 E29.6931
G1 X89.242 Y90.215 E29.72317
G1 X89.917 Y89.514 E29.75553
G0 F6000 X90.18 Y89.816
G1 F1200 X90.861 Y89.223 E29.78557
G1 X91.593 Y88.693 E29.81563
G1 X92.368 Y88.23 E29.84565
G1 X93.181 Y87.837 E29.87569
G1 X94.026 Y87.517 E29.90574
G1 X94.895 Y87.274 E29.93575
G1 X95.783 Y87.108 E29.9658
G1 X96.922 Y87.012 E30.00382
G1 X97.529 Y86.999 E30.02401
G1 X202.094 Y86.999 E33.50186
G1 X202.938 Y87.01 E33.52993
G1 X203.84 Y87.063 E33.55998
G1 X204.733 Y87.195 E33.59001
G1 X205.611 Y87.406 E33.62004
G1 X206.467 Y87.694 E33.65008
G1 X207.294 Y88.056 E33.6801
G1 X208.086 Y88.491 E33.71016
G1 X208.837 Y88.993 E33.7402
G1 X209.54 Y89.56 E33.77024
G1 X210.19 Y90.187 E33.80028
G1 X210.782 Y90.869 E33.83032
G1 X211.312 Y91.6 E33.86035
G1 X211.774 Y92.376 E33.89039
G1 X212.167 Y93.189 E33.92042
G1 X212.485 Y94.034 E33.95045
G1 X212.728 Y94.904 E33.98049
G1 X212.893 Y95.792 E34.01053
G1 X212.988 Y96.922 E34.04825
G1 X213.001 Y97.529 E34.06844
G1 X213 Y105.192 E34.32332
G1 X212.991 Y105.919 E34.3475
G1 X212.94 Y106.821 E34.37755
G1 X212.809 Y107.715 E34.4076
G1 X212.6 Y108.593 E34.43762
G1 X212.314 Y109.45 E34.46767
G1 X211.953 Y110.278 E34.49771
G1 X211.521 Y111.07 E34.52772
G1 X211.02 Y111.822 E34.55777
G1 X210.454 Y112.526 E34.58781
G1 X209.829 Y113.177 E34.61783
G1 X209.148 Y113.771 E34.64789
G1 X208.417 Y114.302 E34.67794
G1 X207.643 Y114.766 E34.70795
G1 X206.83 Y115.16 E34.738
G1 X205.986 Y115.48 E34.76802
G1 X205.116 Y115.725 E34.79808
G1 X204.229 Y115.891 E34.8281
G1 X203.237 Y115.983 E34.86123
G1 X200.56 Y116.1 E34.95035
G1 X198.054 Y116.281 E35.03392
G1 X195.509 Y116.537 E35.119
G1 X192.967 Y116.866 E35.20425
G1 X190.495 Y117.256 E35.28748
G1 X187.958 Y117.732 E35.37334
G1 X185.538 Y118.254 E35.45568
G1 X183.029 Y118.874 E35.54164
G1 X180.577 Y119.553 E35.62626
G1 X178.16 Y120.296 E35.71036
G1 X175.765 Y121.107 E35.79446
G1 X173.357 Y121.999 E35.87987
G1 X171 Y122.949 E35.9644
G1 X168.675 Y123.963 E36.04876
G1 X166.412 Y125.028 E36.13195
G1 X164.119 Y126.187 E36.2174
G1 X161.872 Y127.404 E36.30239
G1 X159.708 Y128.656 E36.38555
G1 X157.511 Y130.011 E36.4714
G1 X155.413 Y131.389 E36.55488
G1 X153.31 Y132.859 E36.64022
G1 X151.291 Y134.354 E36.72378
G1 X149.283 Y135.931 E36.8087
G1 X147.343 Y137.547 E36.89268
G1 X145.433 Y139.231 E36.97737
G1 X143.543 Y140.994 E37.06334
G1 X141.775 Y142.739 E37.14596
G1 X140.02 Y144.573 E37.23039
G1 X138.308 Y146.466 E37.31528
G1 X136.629 Y148.433 E37.4013
G1 X135.083 Y150.35 E37.48321
G1 X133.517 Y152.409 E37.56924
G1 X132.044 Y154.463 E37.65331
G1 X130.616 Y156.58 E37.73825
G1 X129.267 Y158.705 E37.82196
G1 X127.951 Y160.915 E37.90751
G1 X126.733 Y163.1 E37.99071
G1 X125.536 Y165.395 E38.0768
G1 X124.449 Y167.631 E38.1595
G1 X123.402 Y169.952 E38.24418
G1 X122.401 Y172.35 E38.33061
G1 X121.507 Y174.674 E38.41343
G1 X120.654 Y177.09 E38.49865
G1 X119.882 Y179.493 E38.5826
G1 X119.177 Y181.921 E38.66669
G1 X118.537 Y184.383 E38.75129
G1 X117.957 Y186.908 E38.83746
G1 X117.467 Y189.355 E38.92047
G1 X117.035 Y191.879 E39.00564
G1 X116.681 Y194.375 E39.08948
G1 X116.395 Y196.903 E39.1741
G1 X116.183 Y199.402 E39.25752
G1 X116.035 Y202.013 E39.3445
G1 X115.983 Y203.227 E39.38491
G1 X115.904 Y204.127 E39.41496
G1 X115.747 Y205.016 E39.44499
G1 X115.511 Y205.888 E39.47504
G1 X115.199 Y206.735 E39.50506
G1 X114.813 Y207.552 E39.53511
G1 X114.357 Y208.331 E39.56513
G1 X113.833 Y209.067 E39.59518
G1 X113.247 Y209.754 E39.62522
G1 X112.602 Y210.386 E39.65525
G1 X111.904 Y210.958 E39.68527
G1 X111.157 Y211.467 E39.71533
G1 X110.369 Y211.907 E39.74535
G1 X109.545 Y212.277 E39.77539
G1 X108.691 Y212.571 E39.80543
G1 X107.815 Y212.789 E39.83546
G1 X106.922 Y212.929 E39.86552
G1 X106.079 Y212.988 E39.89363
G1 X105.472 Y213.001 E39.91382
G1 X97.774 Y213 E40.16986
G1 X97.076 Y212.991 E40.19307
G1 X96.175 Y212.94 E40.22309
G1 X95.281 Y212.808 E40.25315
G1 X94.403 Y212.599 E40.28317
G1 X93.546 Y212.312 E40.31323
G1 X92.719 Y211.951 E40.34324
G1 X91.926 Y211.518 E40.37329
G1 X91.175 Y211.017 E40.40332
G1 X90.471 Y210.451 E40.43336
G1 X89.82 Y209.825 E40.4634
G1 X89.227 Y209.144 E40.49343
G1 X88.697 Y208.413 E40.52346
G1 X88.233 Y207.638 E40.55351
G1 X87.839 Y206.825 E40.58356
G1 X87.519 Y205.981 E40.61358
G1 X87.275 Y205.111 E40.64363
G1 X87.109 Y204.223 E40.67368
G1 X87.012 Y203.068 E40.71223
G1 X86.999 Y202.459 E40.73249
